X: 128
T:Maire Breathnach's #1
M:4/4
L:1/8
F:http://blackrosetheband.googlepages.com/ABCTUNES.ABC May 2009
K:Am
|:AB|"Am"c2 Bc AGED|"G"CDEF GABd|"Am"c2 Bc AGE^F|"G"GEDC A,2 AB|"Am"c2 Bc AGED|CDEF GABc|"G"dB (3BBB BcBA|"Em"GEDC "Am"A,2:||
|:K:A"A"c3 B ABcd|eAce =g3 f|"G"eaaa a=gea|"D"=gedB BAAB|"A"c3 B ABcd|eAce =g3 a|"G"ba=gb agea|"D"=gedB BAAB:|

